X:1
T:Title
%%score { ( 1 3 5 ) | ( 2 4 ) }
L:1/8
M:6/8
K:F
V:1 treble nm="Grand Piano"
V:3 treble 
V:5 treble 
V:2 bass 
V:4 bass 
V:1
 z6[Q:1/4=81] | [CA][CA][CA] [CA][B,G][A,F] | .B3 z3 | [CA][B,G][A,F] [DB]2 [CA] | %4
 [Bd][Ac][FA] [EG]2 C | [CA][DA][EA] [FA][EG][_EF] | .B3 z3 | [CA][DA][_EA] [=EG][Ge][Ec] | %8
[M:13/16] [EG][DF][K:bass][=B,D][E,C]/-[E,C]/-[E,C]/-[E,C]-<[E,C] | %9
[M:3/4][K:treble][Q:1/4=100] [CAc]>[Ad] [FAf]2 [DAd]2 | z2 [cec']4 | [CEc]>[Fd] [EGe]2 [Bdb]2 | %12
 [Aca]6[K:bass] | [A^ca]>[cb] [Aca]2 [Geg]2 | z2 [Afa]4 | [G=Bg]>[Ba] [GBg]2 [DBd]2 | %16
 [GBg]6[K:bass] | [CAc]>[Ad] [Af]2 [DAd]2 | z2 [cec']4 | [CEc]>[Fd] [EGe]2 [Bdb]2 | %20
 [A^ca]6[K:bass] | A>G F2 c2 | [Dd]4 [DB]2 | [FA]2 [EG]2 C2 | [Cc]4 [A,F]2 | %25
[M:13/16] .A3/2 z/ z/ z/ z/ z/ z/ z/ z/ z |[M:3/4] [A,CF]4 z2 | [Aa]6[K:bass] | [Bb]4 z2 | %29
 z2 z2 [DBd]2 | [CAc]4 z2 | [Ff]2 [Fc]4 | [CGB]2 [CFA]4 | .G2 z2 z2 | [A,CF]2 [FAf]2 z2 |] %35
V:2
 z3 z2 C | F,,C,F, F,,C,F, | B,,F,F, F,,C,F, | F,,C,F, F,,F,F, | F,,F,A, CB,C, | %5
 F,,C,F, [F,,F,][G,,G,][A,,A,] | B,,F,F, F,,C,F, | [F,,F,]C,[^F,,^F,] F,,C,G, | %8
[M:13/16] G,,G,F, z/ z/ z c3/2 |[M:3/4] z z/ D/ [C,F,A,]2 [C,F,A,]2 | G,,2 [C,E,B,]2 C,2 | %11
 z z/ D/ [C,E,B,]2 [C,E,B,]2 | F,,2 C,2 C,2 | z z/[K:treble] B/[K:bass] [F,G,^C]2 [F,G,C]2 | %14
 D,,2 [F,A,D]2 F,2 | z z/ A/ [F,G,=B,]2 [F,G,B,]2 | [C,,C,]2 D,,2 E,,2 | z z/ D/ [F,A,F]2 ^F,,2 | %18
 G,,2 [C,E,B,]2 C,2 | z z/ D/ [C,E,B,]2 [G,,G,]2 | [A,,A,]2 E,,2 A,,2 | %21
 [F,C_E]>[F,B,E] [F,A,E]2 [F,A,E]2 | [B,,B,]4 [B,,F,]2 | [C,C]2 [C,C]2 [B,,E,]2 | [A,,F,]4 D,2 | %25
[M:13/16] B,,-<B,,[C,A,C]-<[C,A,C]G,B,3/2 |[M:3/4] F,4 z2 | F,,2 C,2 C,2 | G,,2 C,2 [C,E,B,]2 | %29
 [C,,C,]3 [C,,C,] [D,,D,]E,, | F,,2 C,F, A,C | D2 A,4 | E,2 F,4 | z[K:treble] d cB[K:bass] z G | %34
 F,2 [F,,F,]2 z2 |] %35
V:3
 x6 | x6 | D-[DF][^CG] [=CA]3 | x6 | x6 | x6 | D-[DF][^CG] [=CA]3 | x6 |[M:13/16] x2[K:bass] x9/2 | %9
[M:3/4][K:treble] x6 | [EBe]2 z2 [E,B,]2 | x6 | z2[K:bass] [F,A,]2 [F,A,]2 | x6 | %14
 [Fdf]2 z2 [A,D]2 | x6 | z2[K:bass] D,2 E,2 | x6 | [EBe]2 z2 [E,B,]2 | x6 | z2[K:bass] E,2 A,2 | %21
 x6 | x6 | x6 | x6 |[M:13/16] [B,D]-[B,DG]F-<FEG3/2 |[M:3/4] x6 | z2[K:bass] [F,A,]2 [F,A,]2 | %28
 z2 z [Aa] [Gg][Ff] | [Ece]4 z E, | z2 [F,A,]F Ac | x6 | x6 | [B,D]4 .[B,CEA]2 | x6 |] %35
V:4
 x6 | x6 | x6 | x6 | x6 | x6 | x6 | x6 |[M:13/16] z/ z/ z/ z/ z C,/-C,/-C,/-C,-<C, | %9
[M:3/4] F,,2 z2 z2 | x6 | C,,2 z2 z2 | x6 | E,,2[K:treble][K:bass] z2 z2 | x6 | G,,2 z2 z2 | x6 | %17
 F,,2 z2 z2 | x6 | C,,2 z2 z2 | x6 | x6 | x6 | x6 | x6 | %25
[M:13/16] z/ z/ z/ z/ z/ z/ z [C,C]/-[C,C]-<[C,C] |[M:3/4] x6 | x6 | x6 | x6 | x6 | x6 | x6 | %33
 B,,4[K:treble][K:bass] C,2 | x6 |] %35
V:5
 x6 | x6 | x6 | x6 | x6 | x6 | x6 | x6 |[M:13/16] x2[K:bass] x9/2 |[M:3/4][K:treble] x6 | x6 | x6 | %12
 x2[K:bass] x4 | x6 | x6 | x6 | x2[K:bass] x4 | x6 | x6 | x6 | x2[K:bass] x4 | x6 | x6 | x6 | x6 | %25
[M:13/16] x13/2 |[M:3/4] x6 | x2[K:bass] x4 | z2 [E,B,]2 z2 | x6 | x6 | x6 | x6 | x6 | x6 |] %35

